X: 261
%
U:~=!turn!
T: Jenny's Bawbee
C:
O:Scotland
B:Keith Norman MacDonald : "The Skye collection of the best reels & strathspeys extant" : 1887
Z:Ralph Palmer
R:Reel
M:C
L:1/8
K:D
f | (ab)ag (fd)df | gBed cAAf | (ab)ag fddf | B/B/B (cA) d2 d :| g | fdge fddf | gBed cAAg |
fdge fddf | B/B/B (cA) d2 dg | fdge fddf | gBed cAAg | fdge afbg | fedc defg |]


